app/src/assets/login_eye/hidden.svg

<svg xmlns="http://www.w3.org/2000/svg" viewBox="0 0 477.871 477.871"><path d="M474.61 228.9c-29.006-38.002-63.843-71.175-103.22-98.287l67.345-67.345a17.07 17.07 0 0 0-23.712-24.552 16.63 16.63 0 0 0-.42.42l-73.574 73.506a220.7 220.7 0 0 0-102.093-27.307C109.23 85.336 7.53 223.03 3.262 228.9a17.07 17.07 0 0 0 0 20.07c29.006 38.002 63.843 71.175 103.22 98.287l-67.345 67.345a17.07 17.07 0 0 0 23.712 24.552 16.63 16.63 0 0 0 .42-.42l73.574-73.506a220.7 220.7 0 0 0 102.093 27.307c129.707 0 231.407-137.694 235.674-143.565 4.35-5.982 4.35-14.086 0-20.07zm-343.313 93.593a424.95 424.95 0 0 1-92.484-83.558C63.934 208.506 145.4 119.47 238.936 119.47c26.61.538 52.77 6.95 76.612 18.773L285.92 167.87c-39.2-26.025-92.076-15.345-118.1 23.855a85.2 85.2 0 0 0 0 94.246l-36.523 36.523zm153.72-105.49a50.36 50.36 0 0 1 5.12 21.931c0 28.277-22.923 51.2-51.2 51.2a50.36 50.36 0 0 1-21.931-5.12l68.01-68.01zm-92.16 43.86a50.36 50.36 0 0 1-5.12-21.931c0-28.277 22.923-51.2 51.2-51.2a50.36 50.36 0 0 1 21.931 5.12l-68.01 68.01zm46.08 97.536a180.66 180.66 0 0 1-76.612-18.773L191.952 310c39.2 26.025 92.076 15.345 118.1-23.855a85.2 85.2 0 0 0 0-94.246l36.523-36.523c34.767 23.156 65.93 51.312 92.484 83.558-25.123 30.43-106.6 119.467-200.124 119.467z"/></svg>

<?xml version="1.0" encoding="iso-8859-1"?>
<!-- Generator: Adobe Illustrator 19.0.0, SVG Export Plug-In . SVG Version: 6.00 Build 0)  -->
<svg version="1.1" id="Capa_1" xmlns="http://www.w3.org/2000/svg" xmlns:xlink="http://www.w3.org/1999/xlink" x="0px" y="0px"
	 viewBox="0 0 477.871 477.871" style="enable-background:new 0 0 477.871 477.871;" xml:space="preserve">
<g>
	<g>
		<path d="M474.609,228.901c-29.006-38.002-63.843-71.175-103.219-98.287l67.345-67.345c6.78-6.548,6.968-17.352,0.42-24.132
			c-6.548-6.78-17.352-6.968-24.132-0.42c-0.142,0.137-0.282,0.277-0.42,0.42l-73.574,73.506
			c-31.317-17.236-66.353-26.607-102.093-27.307C109.229,85.336,7.529,223.03,3.262,228.9c-4.349,5.983-4.349,14.087,0,20.07
			c29.006,38.002,63.843,71.175,103.219,98.287l-67.345,67.345c-6.78,6.548-6.968,17.352-0.42,24.132
			c6.548,6.78,17.352,6.968,24.132,0.42c0.142-0.137,0.282-0.277,0.42-0.42l73.574-73.506
			c31.317,17.236,66.353,26.607,102.093,27.307c129.707,0,231.407-137.694,235.674-143.565
			C478.959,242.988,478.959,234.884,474.609,228.901z M131.296,322.494c-34.767-23.156-65.931-51.311-92.484-83.558
			c25.122-30.43,106.598-119.467,200.124-119.467c26.609,0.538,52.77,6.949,76.612,18.773L285.92,167.87
			c-39.2-26.025-92.076-15.345-118.101,23.855c-18.958,28.555-18.958,65.691,0,94.246L131.296,322.494z M285.016,217.005
			c3.34,6.83,5.091,14.328,5.12,21.931c0,28.277-22.923,51.2-51.2,51.2c-7.603-0.029-15.101-1.78-21.931-5.12L285.016,217.005z
			 M192.856,260.866c-3.34-6.83-5.091-14.328-5.12-21.931c0-28.277,22.923-51.2,51.2-51.2c7.603,0.029,15.101,1.78,21.931,5.12
			L192.856,260.866z M238.936,358.402c-26.609-0.538-52.769-6.949-76.612-18.773l29.628-29.628
			c39.2,26.025,92.076,15.345,118.101-23.855c18.958-28.555,18.958-65.691,0-94.246l36.523-36.523
			c34.767,23.156,65.931,51.312,92.484,83.558C413.937,269.366,332.461,358.402,238.936,358.402z"/>
	</g>
</g>
<g>
</g>
<g>
</g>
<g>
</g>
<g>
</g>
<g>
</g>
<g>
</g>
<g>
</g>
<g>
</g>
<g>
</g>
<g>
</g>
<g>
</g>
<g>
</g>
<g>
</g>
<g>
</g>
<g>
</g>
</svg>
